assets/Horse racing/Medium-Dark/Flat/horse_racing_flat_medium-dark.svg

<svg width="32" height="32" viewBox="0 0 32 32" fill="none" xmlns="http://www.w3.org/2000/svg">
<path d="M21.3889 8.22C21.3889 6.99 20.3889 6 19.1689 6H17.7889V10.2L17.2589 10.73C16.8389 11.15 16.6089 11.71 16.6089 12.31V14.36H18.3889V12.31C18.3889 12.19 18.4389 12.08 18.5189 11.99L20.6089 9.91C20.6989 9.84 20.7789 9.76 20.8489 9.67C21.1889 9.28 21.3889 8.78 21.3889 8.22Z" fill="#9B9B9B"/>
<path d="M5.69866 3C4.68866 3 3.84866 3.75 3.71866 4.72C3.69866 4.87 3.80866 5 3.95866 5H5.46866C6.57866 5 7.47866 4.11 7.47866 3H5.69866ZM7.59888 5.29H9V8.51H11V11.79H12.8188C14.6088 11.79 16.0588 10.34 16.0488 8.54V8.33C16.0488 8.15 15.8988 8 15.7188 8H14.9548C15.5963 7.52436 16.0128 6.76037 16.0188 5.9V5.44C16.0188 5.2 15.8188 5 15.5788 5H12.9055C13.4262 4.66864 13.7724 4.08661 13.7789 3.43C13.7789 3.19 13.5889 3 13.3489 3H7.59888V5.29ZM28 5.47999V6.64999C28 6.83999 27.8788 6.99999 27.6688 6.99999H26.5088C25.1288 6.99999 24 8.11999 24 9.49999V16H26V11.36C26 11.16 26.1688 11 26.3688 11H27.5288C28.9088 11 30 9.87999 30 8.49999V6.49999C30 5.66999 29.3588 5 28.5188 5C28.2488 5 28 5.20999 28 5.47999Z" fill="#212121"/>
<path d="M18.9988 23.18V15.39L23.1588 15.23V22.26L19.2588 26.15C19.0988 26.31 19 26.52 19 26.75V27.69C19 27.87 18.8588 28.01 18.6888 28.01H17.3188C17.1388 28.01 16.9988 27.86 16.9988 27.69V26.75C16.9988 25.98 17.2988 25.27 17.8388 24.74L18.7188 23.86C18.8988 23.68 18.9988 23.43 18.9988 23.18Z" fill="#6D4534"/>
<path d="M4.21878 23.42C4.36878 23.57 4.60878 23.57 4.75878 23.42L5.62878 22.54C5.77878 22.39 5.77878 22.15 5.62878 22L5.23878 21.61C5.08878 21.45 4.99878 21.24 4.99878 21.02V18.66C4.99878 18.3 5.28878 18 5.65878 18H12.9988V16H5.65878C4.18878 16 2.99878 17.19 2.99878 18.66V21.02C2.99878 21.78 3.28878 22.49 3.82878 23.03L4.21878 23.42Z" fill="#6D4534"/>
<path d="M23.0788 12H16.0288C14.7788 12 13.6188 11.32 13.0088 10.23L9.96882 4.75C9.69882 4.26 9.32882 3.92 8.85882 3.55L6.83882 2.04C6.65882 1.93 6.42882 2.06 6.42882 2.27V3.1C6.42882 3.17 6.39882 3.24 6.34882 3.29L2.28882 7.69C2.05882 7.94 1.95882 8.29 2.02882 8.63C2.15882 9.32 2.83882 9.66 3.48882 9.4L5.88882 8.43C6.06882 8.36 6.26882 8.48 6.29882 8.67L7.40882 16.71C7.53882 17.62 7.89882 18.45 8.43882 19.12C8.51882 19.22 8.51882 19.37 8.41882 19.47L7.77882 20.11C7.27882 20.62 6.99882 21.29 6.99882 22C6.99882 22.72 7.30882 23.4 7.80882 23.91L9.05882 25.17C9.59882 25.71 10.3088 26 11.0588 26H11.5188C11.7888 26 11.9988 25.79 11.9988 25.52V24.48C11.9988 24.21 11.7888 24 11.5188 24H11.0588C10.8388 24 10.6288 23.91 10.4688 23.76L9.20882 22.49C9.08882 22.36 9.00882 22.2 8.99882 22.03C8.98882 21.84 9.05882 21.67 9.18882 21.53L10.0688 20.65C10.1488 20.57 10.2588 20.55 10.3588 20.59C10.9688 20.86 11.6288 21 12.3288 21H12.9988H15.3488H20.3388C20.7688 21 21.1788 21.14 21.5188 21.39L24.0388 23.28C24.6388 23.73 24.9988 24.44 24.9988 25.2C24.9988 25.72 24.8288 26.22 24.5188 26.64L22.2788 29.63C22.1588 29.78 22.2688 30 22.4588 30H23.6788C23.8788 30 24.0688 29.91 24.1988 29.75L27.4388 25.7C27.7988 25.25 27.9988 24.68 27.9988 24.1V21V16.92C27.9988 14.2 25.7988 12 23.0788 12Z" fill="#7D4533"/>
<path d="M2.99878 6.91992C2.65878 7.27992 2.25878 7.69992 2.25878 7.69992C2.03878 7.94992 1.94878 8.29992 2.02878 8.63992C2.17878 9.31992 2.86878 9.64992 3.50878 9.38992L4.27878 9.07992L2.99878 6.91992Z" fill="#E19747"/>
<path d="M6.28882 6.74995C6.00882 6.74995 5.78882 6.52995 5.78882 6.24995V5.69995C5.78882 5.41995 6.00882 5.19995 6.28882 5.19995C6.56882 5.19995 6.78882 5.41995 6.78882 5.69995V6.24995C6.78882 6.52995 6.56882 6.74995 6.28882 6.74995Z" fill="#212121"/>
<path d="M7.3388 9.90014C7.52199 10.1961 7.68062 10.4026 8 10.4989V2.91016L8.9989 3.66015V10.5601H11.8388V11.5501H8.5388C7.6988 11.5501 6.9388 11.1301 6.4888 10.4201L3.7688 6.09014L4.4788 5.33014L7.3388 9.90014ZM23.0788 12.0001C23.3888 12.0001 23.6988 12.0301 23.9988 12.0901H23.9888L24 16.9101C24 17.5101 23.4988 18.0001 22.8988 18.0001H15.0888C14.4888 18.0001 13.9988 17.5101 13.9988 16.9101V11.3401C14.5788 11.7601 15.2888 12.0001 16.0288 12.0001H23.0788Z" fill="#00D26A"/>
<path d="M15.6489 5.70996L16.4189 7.20996L14.8789 8.00996L14.1089 6.47996L15.6489 5.70996Z" fill="#8B5C56"/>
<path d="M23.1687 8.17C23.1387 6.95 22.1187 6 20.8987 6H19.5587V10.2L18.87 10.73C18.45 11.15 18.22 11.72 18.22 12.31V14.02C18.22 14.36 18.15 14.7 18.02 15.02L17.75 15.65C17.68 15.82 17.7999 16 17.9799 16H19.75C19.89 16 20 15.89 20 15.75V12.32C20 12.2 20.05 12.09 20.13 12L22.3787 9.92C22.4687 9.85 22.5487 9.77 22.6187 9.68C22.9787 9.27 23.1787 8.75 23.1687 8.17Z" fill="#D3D3D3"/>
<path d="M18.2202 13.1799V14.0199C18.2202 14.3599 18.1502 14.6999 18.0202 15.0199L17.7502 15.6499C17.6802 15.8199 17.8002 15.9999 17.9802 15.9999H19.7502C19.8902 15.9999 20.0002 15.8899 20.0002 15.7499V13.1799H18.2202Z" fill="#212121"/>
<path d="M14.7087 2.80005H13.8287C13.0887 2.80005 12.4787 3.41005 12.4787 4.15005V4.53005C12.4787 4.65005 12.4487 4.77005 12.3887 4.87005C12.2087 5.18005 12.1287 5.20005 12.1187 5.35005C12.1087 5.59005 12.3287 5.65005 12.4287 5.66005C12.4587 5.66005 12.4787 5.69005 12.4887 5.72005C12.5087 6.56005 12.6687 7.15005 13.6687 7.15005C14.2787 7.15005 15.2387 6.84005 15.5187 6.13005L15.7787 5.16005L16.0687 4.15005C16.0587 3.41005 15.4587 2.80005 14.7087 2.80005Z" fill="#966661"/>
<path d="M16.0589 5.48003C16.0589 5.48003 16.7989 4.98003 16.5389 3.87003C16.3589 3.86003 16.3889 3.91003 16.2289 3.82003C15.7189 3.55003 15.1989 3.29003 14.6889 3.03003C14.6389 3.05003 14.5989 3.06003 14.5489 3.07003C13.9889 3.19003 13.4389 3.34003 12.8889 3.51003C13.0789 3.60003 13.3489 3.65003 13.7089 3.65003C14.8489 3.65003 14.8489 4.34003 14.8489 4.34003C14.8489 4.34003 15.3189 4.22003 15.3189 5.63003C15.3189 6.36003 15.8689 6.20003 16.1289 6.20003C16.5589 6.21003 16.6289 5.48003 16.0589 5.48003Z" fill="#2D242D"/>
<path d="M14.8589 4.3501C15.1589 4.3501 15.4089 4.6001 15.4089 4.9001C15.4089 5.2001 15.1589 5.4501 14.8589 5.4501V4.3501Z" fill="#8B5C56"/>
<path d="M13.3274 5.70437C13.3747 5.72014 13.4003 5.77127 13.3845 5.81859C13.2987 6.0759 13.0276 6.21147 12.7703 6.1257C12.723 6.10993 12.6974 6.05879 12.7132 6.01148C12.7289 5.96416 12.7801 5.93859 12.8274 5.95437C12.9901 6.00859 13.1589 5.92416 13.2132 5.76148C13.2289 5.71416 13.2801 5.68859 13.3274 5.70437Z" fill="#990838"/>
<path d="M12.8187 4.91991C12.7687 4.91991 12.7287 4.86991 12.7188 4.80991C12.7188 4.80991 12.7188 4.80991 12.7188 4.79991C12.7188 4.54991 12.9288 4.40991 13.1388 4.40991C13.3388 4.40991 13.5588 4.54991 13.5588 4.79991C13.5588 4.79991 13.5588 4.79991 13.5588 4.80991C13.5588 4.86991 13.5187 4.91991 13.4587 4.91991H12.8187Z" fill="white"/>
<path d="M12.7488 4.91997C12.7388 4.87997 12.7288 4.84997 12.7288 4.79997C12.7288 4.61997 12.8388 4.46997 12.9888 4.46997C13.1288 4.46997 13.2488 4.61997 13.2488 4.79997C13.2488 4.83997 13.2388 4.87997 13.2288 4.91997H12.7488Z" fill="#7D4533"/>
<path d="M12.8288 4.91986C12.8088 4.87986 12.7988 4.83986 12.7988 4.79986C12.7988 4.69986 12.8688 4.60986 12.9488 4.60986C13.0288 4.60986 13.0988 4.68986 13.0988 4.79986C13.0988 4.83986 13.0888 4.87986 13.0688 4.91986H12.8288Z" fill="black"/>
<path d="M12.8588 4.72986C12.8865 4.72986 12.9088 4.703 12.9088 4.66986C12.9088 4.63673 12.8865 4.60986 12.8588 4.60986C12.8312 4.60986 12.8088 4.63673 12.8088 4.66986C12.8088 4.703 12.8312 4.72986 12.8588 4.72986Z" fill="white"/>
<path d="M13.5567 4.06275C13.5993 4.09471 13.608 4.15521 13.5761 4.19783C13.5442 4.2404 13.4838 4.24906 13.4412 4.2172L13.4403 4.21659L13.4343 4.21249C13.4286 4.20868 13.4196 4.20289 13.4075 4.19585C13.3832 4.18176 13.3469 4.16285 13.3005 4.14495C13.2075 4.10911 13.0759 4.07796 12.9199 4.09578C12.867 4.10183 12.8192 4.06383 12.8131 4.01091C12.8071 3.95799 12.8451 3.91018 12.898 3.90413C13.092 3.88196 13.2553 3.9208 13.3699 3.96496C13.4272 3.98707 13.4727 4.01066 13.5044 4.02906C13.5203 4.03828 13.5327 4.04624 13.5415 4.05212L13.552 4.0593L13.5551 4.06155L13.5567 4.06275ZM13.4412 4.2172C13.4412 4.21724 13.4412 4.21725 13.4412 4.2172Z" fill="#372128"/>
<path d="M16.4889 4C16.6489 4 16.7689 3.85 16.7289 3.69C16.4889 2.72 15.6089 2 14.5589 2C13.7989 2 13.1289 2.38 12.7289 2.95C12.6089 3.12 12.4189 3.22 12.2189 3.22C12.0089 3.22 11.8289 3.39 11.8289 3.61C11.8289 3.82 11.9989 4 12.2189 4H14.3589V6.86C14.3589 7.02 14.4889 7.15 14.6489 7.15C14.8089 7.15 14.9389 7.02 14.9389 6.86V4H16.4889ZM16.2489 6H19.5689V10H15.9189C15.7889 10 15.6689 10.09 15.6089 10.21L15.3389 10.77C15.0589 11.35 14.4589 11.79 13.8189 11.79H11.1889C10.6889 11.79 10.2789 11.36 10.3089 10.85C10.3389 10.37 10.7489 10 11.2289 10H13.7689L15.4389 6.5C15.5889 6.18 15.9189 6 16.2489 6Z" fill="#635994"/>
<path d="M12 10H11.1888C10.6988 10 10.2988 10.4 10.2988 10.89C10.2988 11.38 10.6988 11.78 11.1888 11.78H12V10Z" fill="#966661"/>
</svg>

<svg xmlns="http://www.w3.org/2000/svg" width="32" height="32" fill="none"><path fill="#9B9B9B" d="M21.389 8.22c0-1.23-1-2.22-2.22-2.22h-1.38v4.2l-.53.53c-.42.42-.65.98-.65 1.58v2.05h1.78v-2.05c0-.12.05-.23.13-.32l2.09-2.08c.09-.07.17-.15.24-.24.34-.39.54-.89.54-1.45Z"/><path fill="#212121" d="M5.699 3c-1.01 0-1.85.75-1.98 1.72-.02.15.09.28.24.28h1.51c1.11 0 2.01-.89 2.01-2h-1.78Zm1.9 2.29H9v3.22h2v3.28h1.819c1.79 0 3.24-1.45 3.23-3.25v-.21c0-.18-.15-.33-.33-.33h-.764a2.632 2.632 0 0 0 1.064-2.1v-.46c0-.24-.2-.44-.44-.44h-2.674c.521-.331.867-.913.874-1.57 0-.24-.19-.43-.43-.43h-5.75v2.29ZM28 5.48v1.17c0 .19-.121.35-.331.35h-1.16A2.508 2.508 0 0 0 24 9.5V16h2v-4.64c0-.2.169-.36.369-.36h1.16C28.909 11 30 9.88 30 8.5v-2c0-.83-.641-1.5-1.481-1.5-.27 0-.519.21-.519.48Z"/><path fill="#6D4534" d="M18.999 23.18v-7.79l4.16-.16v7.03l-3.9 3.89a.848.848 0 0 0-.259.6v.94c0 .18-.141.32-.311.32h-1.37c-.18 0-.32-.15-.32-.32v-.94c0-.77.3-1.48.84-2.01l.88-.88a.97.97 0 0 0 .28-.68ZM4.219 23.42c.15.15.39.15.54 0l.87-.88a.38.38 0 0 0 0-.54l-.39-.39a.867.867 0 0 1-.24-.59v-2.36c0-.36.29-.66.66-.66h7.34v-2h-7.34c-1.47 0-2.66 1.19-2.66 2.66v2.36c0 .76.29 1.47.83 2.01l.39.39Z"/><path fill="#7D4533" d="M23.079 12h-7.05c-1.25 0-2.41-.68-3.02-1.77l-3.04-5.48c-.27-.49-.64-.83-1.11-1.2l-2.02-1.51a.27.27 0 0 0-.41.23v.83c0 .07-.03.14-.08.19l-4.06 4.4c-.23.25-.33.6-.26.94.13.69.81 1.03 1.46.77l2.4-.97c.18-.07.38.05.41.24l1.11 8.04c.13.91.49 1.74 1.03 2.41.08.1.08.25-.02.35l-.64.64c-.5.51-.78 1.18-.78 1.89 0 .72.31 1.4.81 1.91l1.25 1.26c.54.54 1.25.83 2 .83h.46c.27 0 .48-.21.48-.48v-1.04c0-.27-.21-.48-.48-.48h-.46c-.22 0-.43-.09-.59-.24l-1.26-1.27a.752.752 0 0 1-.21-.46.67.67 0 0 1 .19-.5l.88-.88c.08-.08.19-.1.29-.06.61.27 1.27.41 1.97.41h8.01c.43 0 .84.14 1.18.39l2.52 1.89a2.401 2.401 0 0 1 .48 3.36l-2.24 2.99c-.12.15-.01.37.18.37h1.22c.2 0 .39-.09.52-.25l3.24-4.05c.36-.45.56-1.02.56-1.6v-7.18c0-2.72-2.2-4.92-4.92-4.92Z"/><path fill="#E19747" d="M2.999 6.92c-.34.36-.74.78-.74.78-.22.25-.31.6-.23.94.15.68.84 1.01 1.48.75l.77-.31-1.28-2.16Z"/><path fill="#212121" d="M6.289 6.75c-.28 0-.5-.22-.5-.5V5.7c0-.28.22-.5.5-.5s.5.22.5.5v.55c0 .28-.22.5-.5.5Z"/><path fill="#00D26A" d="M7.339 9.9c.183.296.342.503.661.599V2.91l.999.75v6.9h2.84v.99h-3.3c-.84 0-1.6-.42-2.05-1.13l-2.72-4.33.71-.76 2.86 4.57Zm15.74 2.1c.31 0 .62.03.92.09h-.01L24 16.91c0 .6-.501 1.09-1.101 1.09h-7.81c-.6 0-1.09-.49-1.09-1.09v-5.57c.58.42 1.29.66 2.03.66h7.05Z"/><path fill="#8B5C56" d="m15.649 5.71.77 1.5-1.54.8-.77-1.53 1.54-.77Z"/><path fill="#D3D3D3" d="M23.169 8.17c-.03-1.22-1.05-2.17-2.27-2.17h-1.34v4.2l-.689.53c-.42.42-.65.99-.65 1.58v1.71c0 .34-.07.68-.2 1l-.27.63c-.07.17.05.35.23.35h1.77c.14 0 .25-.11.25-.25v-3.43c0-.12.05-.23.13-.32l2.249-2.08c.09-.07.17-.15.24-.24.36-.41.56-.93.55-1.51Z"/><path fill="#212121" d="M18.22 13.18v.84c0 .34-.07.68-.2 1l-.27.63c-.07.17.05.35.23.35h1.77c.14 0 .25-.11.25-.25v-2.57h-1.78Z"/><path fill="#966661" d="M14.709 2.8h-.88c-.74 0-1.35.61-1.35 1.35v.38c0 .12-.03.24-.09.34-.18.31-.26.33-.27.48-.01.24.21.3.31.31.03 0 .05.03.06.06.02.84.18 1.43 1.18 1.43.61 0 1.57-.31 1.85-1.02l.26-.97.29-1.01c-.01-.74-.61-1.35-1.36-1.35Z"/><path fill="#2D242D" d="M16.059 5.48s.74-.5.48-1.61c-.18-.01-.15.04-.31-.05-.51-.27-1.03-.53-1.54-.79-.05.02-.09.03-.14.04-.56.12-1.11.27-1.66.44.19.09.46.14.82.14 1.14 0 1.14.69 1.14.69s.47-.12.47 1.29c0 .73.55.57.81.57.43.01.5-.72-.07-.72Z"/><path fill="#8B5C56" d="M14.859 4.35c.3 0 .55.25.55.55 0 .3-.25.55-.55.55v-1.1Z"/><path fill="#990838" d="M13.327 5.704a.09.09 0 0 1 .057.115.482.482 0 0 1-.614.307.09.09 0 1 1 .057-.172.301.301 0 0 0 .386-.193.09.09 0 0 1 .114-.057Z"/><path fill="#fff" d="M12.819 4.92c-.05 0-.09-.05-.1-.11V4.8c0-.25.21-.39.42-.39.2 0 .42.14.42.39v.01c0 .06-.04.11-.1.11h-.64Z"/><path fill="#7D4533" d="M12.749 4.92c-.01-.04-.02-.07-.02-.12 0-.18.11-.33.26-.33.14 0 .26.15.26.33 0 .04-.01.08-.02.12h-.48Z"/><path fill="#000" d="M12.829 4.92a.266.266 0 0 1-.03-.12c0-.1.07-.19.15-.19.08 0 .15.08.15.19 0 .04-.01.08-.03.12h-.24Z"/><path fill="#fff" d="M12.859 4.73c.027 0 .05-.027.05-.06s-.023-.06-.05-.06c-.028 0-.05.027-.05.06s.022.06.05.06Z"/><path fill="#372128" d="M13.557 4.063a.097.097 0 0 1-.116.154l-.007-.005a.76.76 0 0 0-.134-.068.803.803 0 0 0-.38-.048.097.097 0 0 1-.022-.192.996.996 0 0 1 .643.148l.011.007.003.003h.002Zm-.116.154Z"/><path fill="#635994" d="M16.489 4c.16 0 .28-.15.24-.31A2.233 2.233 0 0 0 14.559 2c-.76 0-1.43.38-1.83.95-.12.17-.31.27-.51.27a.39.39 0 0 0 0 .78h2.14v2.86a.29.29 0 0 0 .58 0V4h1.55Zm-.24 2h3.32v4h-3.65c-.13 0-.25.09-.31.21l-.27.56c-.28.58-.88 1.02-1.52 1.02h-2.63a.89.89 0 0 1-.88-.94c.03-.48.44-.85.92-.85h2.54l1.67-3.5c.15-.32.48-.5.81-.5Z"/><path fill="#966661" d="M12 10h-.811c-.49 0-.89.4-.89.89s.4.89.89.89H12V10Z"/></svg>
